X: 0591
M: 2/4
L: 1/16
K: F
cB |\
|: ga |\
bgbg gege | afaf cAcA | Bcde fgab | a2g2g2 ga |\
bgbg gege | afaf cAcA | dBFB ecBG | [f2A2][f2A2][f2A2] :|

